X:18622
T:Weymouth reel
R:Reel
O:England
M:2/4
L:1/8
N:Gladstone's (sort of) (Donegal)(BStocks)
A:Lancashire
B:Winder
K:G
g | fd ec | BG GA/B/ | cB AG | FD Dg | \
fd ec | BG GA/2B/2 | ce dF | G2G:|*
|:G|\
FA cA | Bd gb | ce EA | GF ED |\
BG cA | dB ec | Be dF | G2G:|**


